X: 9874
T: Dermot McLoughlin's
R: barndance
M: 4/4
K: Dmajor
|:F>G|A>FA<d f2 d>f|e<^de<g B2- B>=d|c>e (3DEF G>FG>A|B>AA<^G A2 (3EF=G|
[1 A>^GA<d f4|e>^de<g B2 e>=d|c2 E>F G2 (3ABc|d>f (3edc A2:|
[2 A>^GA<d f>A (3def|e>^de<g B2- B>=d|c>DE>F G>AB>c|(3ded c>e d2||
K: Amaj
|:^d>e|c>AE<A c2 A>c|B>^AB<d F4|g>fd>B G>EF>G|(3AcB (3AGF E>e^d>e|
c>AE<A c2- c>A|B>^AB<d f2 ^e>f|g>fd>B G2 (3EFG|(3ABA (3GAB A2:|

